X:801
T:Zucchini Jig ( AKA Van Hook's )
C:Rob Greenway
M:6/8
L:1/8
K:D
"Bm"fBB BAB|"G"GBA GBd|"Bm"fBB BAB|"G"GBd "A"ece|"Bm"fBB BAB|"G"GBA GBd|
"D"DFA "Em"BAG|1 "F#m"FBA "G"B3 :|2 "F#m"FBA "G"B2 c|: "D"dAF DFA|\
"Em"EBe ede|"Bm"fed cBA|
"F#m"Fcc Fcc|"G"BAG A2 G|"D"~F3 FED|"Em"G2 E EFG|"F#m"FGA "G"B3:|
